X: 39215
T: T'Owd Yowe Wi' One Horn
R: jig
M: 6/8
K: Dmajor
A|"D"F>ED A2 A|"G"GFE "D"D3|(2AA (2d>B|B/2A/2-A2-"A"A2 A/2A/2|
"Bm"d>dc "D"BAF|"Em"E>ED!invertedfermata!"G"B,2C|"Bm"D>DD "A"A2F|"D"E/2D/2-D2-D3||

